shader_type canvas_item;

uniform vec4 solid_color : hint_color;

void fragment() {
    vec4 texture_color = texture(TEXTURE, UV);
    COLOR = vec4(mix(texture_color.rgb, solid_color.rgb, solid_color.a), texture_color.a);
}